X: 2
T: The Cat Rambles To The Child's Saucepan
R: slide
M: 12/8
L: 1/8
K: Cmaj
|: G | c2d e2d cBc ~A3 | f2G BAG d2G BAG |
c2d e2d cBc AcA | f2G BAG ~c3 c2 :|
|: G | c2e ~g3 age ~g2e | d2G BAG d2G BAG |
c2e ~g3 age ~g2e | d2G BAG ~c3 c2 :|


Tune 365	Setting 365

